usr/share/icons/big-icons/symbolic/status/network-cellular-acquiring-rtl-symbolic.svg

<svg width="16px" height="16px" version="1.1" viewBox="0 0 16 16" xmlns="http://www.w3.org/2000/svg">
 <path d="m3 2v5.2695a2 2 0 0 0-1 1.7305v-6h-1v10h1v-4a2 2 0 0 0 1 1.7227v3.2773h-3v-12zm4 3v2a2 2 0 0 0-1 0.27148v-1.2715h-1v1.2715a2 2 0 0 0-1-0.27148v-2zm1.5 5.3223a2 2 0 0 0 0.5 0.40625v2.2715h1v-2a2 2 0 0 0 1-0.27734v3.2773h-3v-3.2715a2 2 0 0 0 0.5-0.40625zm-2.5 0.40625a2 2 0 0 0 1 0.27148v3h-3v-3a2 2 0 0 0 1-0.27148v2.2715h1zm9 0.27148v3h-3v-3zm-1 1h-1v1h1z" fill="#363636"/>
 <g transform="matrix(-1,0,0,1,15,0)" color="#363636" fill="#363636">
  <path d="m5 8a1 1 0 1 0 0 2 1 1 0 0 0 0-2zm3 0a1 1 0 1 0 0 2 1 1 0 0 0 0-2zm3 0a1 1 0 1 0 0 2 1 1 0 0 0 0-2z" fill="#363636" overflow="visible"/>
 </g>
</svg>

<svg xmlns="http://www.w3.org/2000/svg" width="16" height="16">
<path fill="#fcfcfc" d="M3 2v5.27A2 2 0 0 0 2 9V3H1v10h1V9a2 2 0 0 0 1 1.723V14H0V2zm4 3v2a2 2 0 0 0-1 .271V6H5v1.271A2 2 0 0 0 4 7V5zm1.5 5.322a2 2 0 0 0 .5.407V13h1v-2a2 2 0 0 0 1-.277V14H8v-3.271a2 2 0 0 0 .5-.407M6 10.73A2 2 0 0 0 7 11v3H4v-3a2 2 0 0 0 1-.271V13h1zm9 .27v3h-3v-3zm-1 1h-1v1h1z"/>
<path fill="#fcfcfc" d="M10 8a1 1 0 1 1 0 2 1 1 0 0 1 0-2M7 8a1 1 0 1 1 0 2 1 1 0 0 1 0-2M4 8a1 1 0 1 1 0 2 1 1 0 0 1 0-2" color="#fcfcfc" overflow="visible"/>
</svg>
